X:100
T:Father Kelly's No. 1
Z: id:dc-reel-92
M:C
L:1/8
K:G Major
GA|B2GB AGEG|DGGF G2AB|cBAB cBAG|EGAG FDGA|!
B2GB AGEG|DGGF G2Bc|d2Bd gdBd|cAFA G2:|!
Bc|d2Bd gdBd|d2Bd gdBd|e2ce agfe|defg agfe|!
d2Bd gdBd|d2Bd gdBd|c2Ac B2GB|AGEF G2:|!

